assets/img/carousel/atomic-swaps.svg

<svg width="277" height="236" viewBox="0 0 277 236" fill="none" xmlns="http://www.w3.org/2000/svg">
<path d="M141.736 119.676C101.377 119.676 68.6592 163.622 68.6592 217.832" stroke="#DDDDDD"/>
<path d="M141.049 119.676C81.7339 119.676 33.6489 145.728 33.6489 177.864" stroke="#DDDDDD"/>
<path d="M141.736 119.088C101.377 119.088 68.6592 75.1419 68.6592 20.9309" stroke="#DDDDDD"/>
<path d="M141.049 119.088C81.7339 119.088 33.6489 93.0359 33.6489 60.8989" stroke="#DDDDDD"/>
<path d="M34.396 84.4281C45.7178 84.4281 54.896 75.2257 54.896 63.8741C54.896 52.5224 45.7178 43.3201 34.396 43.3201C23.0742 43.3201 13.896 52.5224 13.896 63.8741C13.896 75.2257 23.0742 84.4281 34.396 84.4281Z" fill="white" stroke="#DDDDDD"/>
<path d="M34.396 193.752C45.7178 193.752 54.896 184.55 54.896 173.198C54.896 161.846 45.7178 152.644 34.396 152.644C23.0742 152.644 13.896 161.846 13.896 173.198C13.896 184.55 23.0742 193.752 34.396 193.752Z" fill="white" stroke="#DDDDDD"/>
<path d="M70.7412 234.897C82.063 234.897 91.2412 225.694 91.2412 214.342C91.2412 202.99 82.063 193.787 70.7412 193.787C59.4194 193.787 50.2412 202.99 50.2412 214.342C50.2412 225.694 59.4194 234.897 70.7412 234.897Z" fill="white" stroke="#DDDDDD"/>
<path d="M70.7412 42.108C82.063 42.108 91.2412 32.9057 91.2412 21.554C91.2412 10.2023 82.063 1 70.7412 1C59.4194 1 50.2412 10.2023 50.2412 21.554C50.2412 32.9057 59.4194 42.108 70.7412 42.108Z" fill="white" stroke="#DDDDDD"/>
<path d="M141.361 119.088H19.689Z" fill="white"/>
<path d="M141.361 119.088H19.689" stroke="#DDDDDD"/>
<path d="M21.5 139.678C32.8218 139.678 42 130.476 42 119.124C42 107.772 32.8218 98.5701 21.5 98.5701C10.1782 98.5701 1 107.772 1 119.124C1 130.476 10.1782 139.678 21.5 139.678Z" fill="white" stroke="#DDDDDD"/>
<path d="M132.264 119.676C172.623 119.676 205.34 163.622 205.34 217.832" stroke="#DDDDDD"/>
<path d="M132.951 119.676C192.267 119.676 240.352 145.728 240.352 177.864" stroke="#DDDDDD"/>
<path d="M132.264 119.088C172.623 119.088 205.34 75.1419 205.34 20.9309" stroke="#DDDDDD"/>
<path d="M132.951 119.088C192.267 119.088 240.352 93.0359 240.352 60.8989" stroke="#DDDDDD"/>
<path d="M242.465 84.4281C253.787 84.4281 262.965 75.2257 262.965 63.8741C262.965 52.5224 253.787 43.3201 242.465 43.3201C231.143 43.3201 221.965 52.5224 221.965 63.8741C221.965 75.2257 231.143 84.4281 242.465 84.4281Z" fill="white" stroke="#DDDDDD"/>
<path d="M242.465 193.752C253.787 193.752 262.965 184.55 262.965 173.198C262.965 161.846 253.787 152.644 242.465 152.644C231.143 152.644 221.965 161.846 221.965 173.198C221.965 184.55 231.143 193.752 242.465 193.752Z" fill="white" stroke="#DDDDDD"/>
<path d="M206.121 234.897C217.443 234.897 226.621 225.694 226.621 214.342C226.621 202.99 217.443 193.787 206.121 193.787C194.799 193.787 185.621 202.99 185.621 214.342C185.621 225.694 194.799 234.897 206.121 234.897Z" fill="white" stroke="#DDDDDD"/>
<path d="M206.5 42.108C217.822 42.108 227 32.9057 227 21.554C227 10.2023 217.822 1 206.5 1C195.178 1 186 10.2023 186 21.554C186 32.9057 195.178 42.108 206.5 42.108Z" fill="white" stroke="#DDDDDD"/>
<path d="M132.638 119.088H254.31Z" fill="white"/>
<path d="M132.638 119.088H254.31" stroke="#DDDDDD"/>
<path d="M135.069 166.17C161.05 166.17 182.112 145.051 182.112 119C182.112 92.9488 161.05 71.8301 135.069 71.8301C109.088 71.8301 88.0259 92.9488 88.0259 119C88.0259 145.051 109.088 166.17 135.069 166.17Z" fill="white" stroke="#DDDDDD"/>
<path d="M255.362 139.678C266.684 139.678 275.862 130.476 275.862 119.124C275.862 107.772 266.684 98.5701 255.362 98.5701C244.04 98.5701 234.862 107.772 234.862 119.124C234.862 130.476 244.04 139.678 255.362 139.678Z" fill="white" stroke="#DDDDDD"/>
<path d="M79.8382 19.324C80.2422 16.626 78.1872 15.175 75.3782 14.207L76.2892 10.552L74.0642 9.998L73.1772 13.557C72.5922 13.411 71.9912 13.274 71.3942 13.138L72.2882 9.556L70.0652 9L69.1532 12.654C68.6692 12.544 68.1942 12.435 67.7332 12.32L67.7352 12.309L64.6672 11.543L64.0752 13.919C64.0752 13.919 65.7252 14.297 65.6912 14.32C66.5922 14.545 66.7552 15.141 66.7282 15.614L65.6902 19.778C65.7532 19.794 65.8332 19.817 65.9212 19.852C65.8472 19.834 65.7682 19.813 65.6862 19.794L64.2312 25.627C64.1212 25.901 63.8412 26.312 63.2112 26.156C63.2332 26.188 61.5942 25.752 61.5942 25.752L60.4902 28.299L63.3852 29.021C63.9242 29.156 64.4522 29.297 64.9712 29.43L64.0502 33.127L66.2722 33.681L67.1842 30.023C67.7912 30.188 68.3802 30.34 68.9572 30.483L68.0482 34.124L70.2732 34.678L71.1942 30.988C74.9882 31.706 77.8402 31.416 79.0422 27.985C80.0092 25.222 78.9942 23.628 76.9982 22.589C78.4512 22.255 79.5462 21.299 79.8382 19.324ZM74.7552 26.452C74.0672 29.215 69.4162 27.721 67.9072 27.347L69.1292 22.449C70.6372 22.825 75.4742 23.571 74.7552 26.452ZM75.4432 19.284C74.8162 21.797 70.9442 20.52 69.6882 20.207L70.7952 15.765C72.0512 16.078 76.0962 16.662 75.4432 19.284Z" fill="#46D593"/>
<path d="M34.292 49.8049L34.104 50.4429V68.9619L34.292 69.1489L42.896 64.0679L34.292 49.8049Z" fill="#BCE2D0"/>
<path d="M34.104 49.8049L25.896 64.0679L34.104 69.1489V60.1609V49.8049Z" fill="#BCE2D0"/>
<path d="M34.21 70.7928L34.104 70.9238V77.6278L34.21 77.9428L42.896 65.6318L34.21 70.7928Z" fill="#BCE2D0"/>
<path d="M34.104 77.9428V70.7928L25.896 65.6318L34.104 77.9428Z" fill="#BCE2D0"/>
<path d="M34.104 69.149L42.31 64.179L34.104 60.356V69.149Z" fill="#BCE2D0"/>
<path d="M25.896 64.179L34.104 69.149V60.356L25.896 64.179Z" fill="#BCE2D0"/>
<path d="M32.8918 178.334L34.1238 173.687L37.0398 172.619L37.7648 169.889L37.7398 169.82L34.8698 170.871L36.9378 163.068H31.0728L28.3678 173.251L26.1098 174.078L25.3638 176.893L27.6198 176.066L26.0258 182.068H41.6358L42.6358 178.334H32.8918Z" fill="#46D593"/>
<path d="M20.123 121.134H25.764C27.86 121.134 29.565 119.428 29.565 117.332C29.565 115.236 27.86 113.531 25.764 113.531H23.967L20.123 110.195H25.764C29.706 110.195 32.901 113.391 32.901 117.333C32.901 120.323 31.062 122.885 28.453 123.946L32.901 127.806H27.811L20.123 121.134Z" fill="#8BDBB6"/>
<path d="M22.8771 116.869H17.2371C15.1411 116.869 13.4361 118.574 13.4361 120.669C13.4361 122.764 15.1421 124.471 17.2371 124.471H19.0341L22.8781 127.806H17.2371C13.2951 127.806 10.0991 124.611 10.0991 120.669C10.0991 117.679 11.9391 115.118 14.5481 114.056L10.1001 110.195H15.1901L22.8771 116.869Z" fill="#8BDBB6"/>
<path d="M22.8771 116.869H17.2371C15.1411 116.869 13.4361 118.574 13.4361 120.669C13.4361 122.764 15.1421 124.471 17.2371 124.471H19.0341L22.8781 127.806H17.2371C13.2951 127.806 10.0991 124.611 10.0991 120.669C10.0991 117.679 11.9391 115.118 14.5481 114.056L10.1001 110.195H15.1901L22.8771 116.869Z" fill="#8BDBB6"/>
<path d="M216.796 207.978L206.744 222.208C206.744 222.208 206.55 222.505 206.156 222.505C205.761 222.505 205.504 222.191 205.504 222.191L203.77 219.892L214.214 204.954C212.034 203.099 209.208 201.977 206.121 201.977C199.223 201.977 193.631 207.569 193.631 214.467C193.631 221.365 199.223 226.957 206.121 226.957C213.019 226.957 218.611 221.365 218.611 214.467C218.611 212.091 217.947 209.87 216.796 207.978ZM196.817 214.15L197.906 212.932L198.825 214.15H196.817ZM198.232 212.566L198.257 212.539H203.177L205.87 216.047L203.465 219.488L198.232 212.566Z" fill="#8BDBB6"/>
<path d="M234.599 171.801L242.533 168.457L250.222 171.887L242.521 159.741L234.599 171.801ZM234.623 175.512L242.545 180.101L250.625 175.512L242.617 186.656L234.623 175.512Z" fill="#BCE2D0"/>
<path d="M242.568 170.092L234.306 173.571L242.568 178.161L250.6 173.668L242.568 170.092Z" fill="#BCE2D0"/>
<path d="M75.4577 218.05H66.0348L58.7188 222.277H82.7988L75.4577 218.05Z" fill="#D0E7DC"/>
<path d="M70.781 209.822L75.494 217.98L82.816 222.2L70.769 201.35L70.781 209.822Z" fill="#D0E7DC"/>
<path d="M65.996 217.988L70.702 209.824L70.693 201.374L58.667 222.236L65.996 217.988Z" fill="#D0E7DC"/>
<path d="M198.081 13.656L200.301 18.853H196.972V20.585H201.033L201.763 22.317H196.972V24.049H202.521L206.392 33.172L210.371 24.049H216.028V22.317H211.129L211.887 20.585H216.029V18.853H212.645L214.919 13.656H213.023L209.234 22.318H203.659L199.95 13.656H198.081V13.656ZM204.389 24.051H208.476L206.419 28.788L204.389 24.051Z" fill="#D0E7DC"/>
<path d="M255.362 113.11L261.023 125.014H249.703L255.362 113.11ZM255.362 107.803L246.098 127.295H264.625L255.362 107.803Z" fill="#8BDBB6"/>
<path d="M140.398 125.472H129.52V114.529H140.398V125.472ZM156.812 107.159C156.363 104.553 154.932 102.086 152.856 100.445C150.93 98.8585 148.462 98.0062 145.971 98.0041C138.586 98.0017 131.194 97.9952 123.808 98.0062C119.953 98.0501 116.311 100.284 114.435 103.641C113.393 105.443 113.002 107.468 113 109.533C113.004 116.269 112.998 123.009 113.002 129.745C112.989 131.312 113.057 132.816 113.546 134.319C114.635 137.801 117.57 140.62 121.077 141.602C120.017 140.756 119.547 139.579 119.203 138.304C118.49 135.51 118.435 132.608 118.549 129.745C118.538 123.007 118.553 116.269 118.54 109.533C118.551 108.374 118.637 107.284 119.229 106.258C120.142 104.621 121.921 103.527 123.808 103.551C130.827 103.547 137.855 103.553 144.874 103.549C145.934 103.551 146.897 103.472 147.911 103.857C149.596 104.417 150.932 105.926 151.301 107.662C151.509 108.681 151.454 109.812 151.456 110.852V130.624C151.456 131.595 151.349 132.544 150.932 133.432C150.072 135.233 148.212 136.483 146.195 136.446C140.639 136.455 135.077 136.444 129.522 136.45C129.511 134.638 129.513 132.823 129.52 131.008C134.055 131.008 138.588 131.002 143.123 131.013C144.1 131.066 145.223 130.571 145.673 129.671C145.927 129.211 145.969 128.721 145.98 128.209C145.976 122.715 145.978 117.223 145.978 111.728C146.022 110.711 145.53 109.804 144.631 109.32C143.88 108.883 143.077 108.995 142.241 108.98C137.05 108.993 131.852 108.973 126.663 108.991C125.177 108.953 123.94 110.247 123.986 111.728C123.964 119.622 123.986 127.559 123.975 135.457C124.017 137.026 123.966 138.513 124.875 139.871C125.564 140.993 126.729 141.562 127.982 141.811C129.463 142.05 130.88 141.993 132.368 141.995C136.903 141.997 141.436 141.993 145.971 142C148.227 142.019 150.423 141.288 152.275 140.011C154.261 138.546 155.801 136.525 156.51 134.143C156.999 132.533 156.99 130.969 156.999 129.306C156.999 123.007 157.001 116.711 156.999 110.412C156.99 109.331 156.979 108.228 156.812 107.159" fill="#46D593"/>
<path d="M242.453 77.1589C235.127 77.1589 229.167 71.1999 229.167 63.8739C229.167 56.5479 235.127 50.5879 242.453 50.5879C249.779 50.5879 255.739 56.5479 255.739 63.8739C255.739 71.1999 249.777 77.1589 242.453 77.1589ZM242.453 52.3779C236.114 52.3779 230.958 57.5359 230.958 63.8739C230.958 70.2129 236.114 75.3689 242.453 75.3689C248.792 75.3689 253.948 70.2129 253.948 63.8739C253.948 57.5359 248.792 52.3779 242.453 52.3779Z" fill="#46D593"/>
<path d="M241.636 67.2668H247.542V70.2348H243.907C243.968 71.0838 243.997 71.8718 244.059 72.7188H240.998V70.2658H237.362C237.362 69.2958 237.241 68.3278 237.423 67.4178C237.516 66.9338 238.06 66.5088 238.393 66.0848C239.544 64.7218 240.696 63.3888 241.876 62.0258C242.33 61.5118 242.785 61.0268 243.3 60.4508H237.635V57.4818H240.998V54.9978H243.936V57.4208H247.601C247.601 58.4208 247.723 59.3908 247.54 60.2988C247.45 60.7838 246.903 61.2078 246.541 61.6318C245.39 62.9938 244.238 64.3278 243.057 65.6908C242.605 66.2368 242.151 66.7218 241.636 67.2668Z" fill="#46D593"/>
</svg>

<svg version="1.1" id="Layer_1" xmlns="http://www.w3.org/2000/svg" xmlns:xlink="http://www.w3.org/1999/xlink" x="0px" y="0px" width="277px" height="236px" viewBox="0 0 277 236" enable-background="new 0 0 277 236" xml:space="preserve">
<path id="Oval-11" fill="none" stroke="#DDDDDD" d="M141.736,119.676c-40.359,0-73.077,43.946-73.077,98.156"/>
<path id="Oval-11_1_" fill="none" stroke="#DDDDDD" d="M141.049,119.676c-59.315,0-107.4,26.052-107.4,58.188"/>
<path id="Oval-11_2_" fill="none" stroke="#DDDDDD" d="M141.736,119.088c-40.359,0-73.077-43.946-73.077-98.157"/>
<path id="Oval-11_3_" fill="none" stroke="#DDDDDD" d="M141.049,119.088c-59.315,0-107.4-26.052-107.4-58.189"/>
<ellipse id="Oval-Copy-5" fill="#FFFFFF" stroke="#DDDDDD" cx="34.396" cy="63.874" rx="20.5" ry="20.554"/>
<ellipse id="Oval-Copy-6" fill="#FFFFFF" stroke="#DDDDDD" cx="34.396" cy="173.198" rx="20.5" ry="20.554"/>
<ellipse id="Oval-Copy-7" fill="#FFFFFF" stroke="#DDDDDD" cx="70.741" cy="214.342" rx="20.5" ry="20.555"/>
<ellipse id="Oval-Copy-8" fill="#FFFFFF" stroke="#DDDDDD" cx="70.741" cy="21.554" rx="20.5" ry="20.554"/>
<path id="Line-5" fill="#FFFFFF" stroke="#DDDDDD" d="M141.361,119.088H19.689"/>
<ellipse id="Oval-Copy-4" fill="#FFFFFF" stroke="#DDDDDD" cx="21.5" cy="119.124" rx="20.5" ry="20.554"/>
<path id="Oval-11_4_" fill="none" stroke="#DDDDDD" d="M132.264,119.676c40.359,0,73.076,43.946,73.076,98.156"/>
<path id="Oval-11_5_" fill="none" stroke="#DDDDDD" d="M132.951,119.676c59.316,0,107.401,26.052,107.401,58.188"/>
<path id="Oval-11_6_" fill="none" stroke="#DDDDDD" d="M132.264,119.088c40.359,0,73.076-43.946,73.076-98.157"/>
<path id="Oval-11_7_" fill="none" stroke="#DDDDDD" d="M132.951,119.088c59.316,0,107.401-26.052,107.401-58.189"/>
<ellipse id="Oval-Copy-5_1_" fill="#FFFFFF" stroke="#DDDDDD" cx="242.465" cy="63.874" rx="20.5" ry="20.554"/>
<ellipse id="Oval-Copy-6_1_" fill="#FFFFFF" stroke="#DDDDDD" cx="242.465" cy="173.198" rx="20.5" ry="20.554"/>
<ellipse id="Oval-Copy-7_1_" fill="#FFFFFF" stroke="#DDDDDD" cx="206.121" cy="214.342" rx="20.5" ry="20.555"/>
<ellipse id="Oval-Copy-8_1_" fill="#FFFFFF" stroke="#DDDDDD" cx="206.5" cy="21.554" rx="20.5" ry="20.554"/>
<path id="Line-5_1_" fill="#FFFFFF" stroke="#DDDDDD" d="M132.638,119.088h121.672"/>
<ellipse id="Oval-Copy-22" fill="#FFFFFF" stroke="#DDDDDD" cx="135.069" cy="119" rx="47.043" ry="47.17"/>
<ellipse id="Oval-Copy-4_1_" fill="#FFFFFF" stroke="#DDDDDD" cx="255.362" cy="119.124" rx="20.5" ry="20.554"/>
<path id="Shape-Copy-4" fill="#03E8B0" d="M79.838,19.324c0.404-2.698-1.651-4.149-4.46-5.117l0.911-3.655l-2.225-0.554
	l-0.887,3.559c-0.585-0.146-1.186-0.283-1.783-0.419l0.894-3.582L70.065,9l-0.912,3.654c-0.484-0.11-0.959-0.219-1.42-0.334
	l0.002-0.011l-3.068-0.766l-0.592,2.376c0,0,1.65,0.378,1.616,0.401c0.901,0.225,1.064,0.821,1.037,1.294l-1.038,4.164
	c0.063,0.016,0.143,0.039,0.231,0.074c-0.074-0.018-0.153-0.039-0.235-0.058l-1.455,5.833c-0.11,0.274-0.39,0.685-1.02,0.529
	c0.022,0.032-1.617-0.404-1.617-0.404l-1.104,2.547l2.895,0.722c0.539,0.135,1.067,0.276,1.586,0.409l-0.921,3.697l2.222,0.554
	l0.912-3.658c0.607,0.165,1.196,0.317,1.773,0.46l-0.909,3.641l2.225,0.554l0.921-3.69c3.794,0.718,6.646,0.428,7.848-3.003
	c0.967-2.763-0.048-4.357-2.044-5.396C78.451,22.255,79.546,21.299,79.838,19.324z M74.755,26.452
	c-0.688,2.763-5.339,1.269-6.848,0.895l1.222-4.898C70.637,22.825,75.474,23.571,74.755,26.452z M75.443,19.284
	c-0.627,2.513-4.499,1.236-5.755,0.923l1.107-4.442C72.051,16.078,76.096,16.662,75.443,19.284z"/>
<g id="ether" transform="translate(26.000000, 48.000000)">
	<polygon id="Shape" fill="#AAC1BA" points="8.292,1.805 8.104,2.443 8.104,20.962 8.292,21.149 16.896,16.068 	"/>
	<polygon id="Shape_1_" fill="#AAC1BA" points="8.104,1.805 -0.104,16.068 8.104,21.149 8.104,12.161 	"/>
	<polygon id="Shape_2_" fill="#AAC1BA" points="8.21,22.793 8.104,22.924 8.104,29.628 8.21,29.943 16.896,17.632 	"/>
	<polygon id="Shape_3_" fill="#AAC1BA" points="8.104,29.943 8.104,22.793 -0.104,17.632 	"/>
	<polygon id="Shape_4_" fill="#AAC1BA" points="8.104,21.149 16.31,16.179 8.104,12.356 	"/>
	<polygon id="Shape_5_" fill="#AAC1BA" points="-0.104,16.179 8.104,21.149 8.104,12.356 	"/>
</g>
<g id="litecoin" transform="translate(24.000000, 162.000000)">
	<polyline id="Shape_7_" fill="#03E8B0" points="8.892,16.334 10.124,11.687 13.04,10.619 13.765,7.889 13.74,7.82 10.87,8.871 
		12.938,1.068 7.073,1.068 4.368,11.251 2.11,12.078 1.364,14.893 3.62,14.066 2.026,20.068 17.636,20.068 18.636,16.334 
		8.892,16.334 	"/>
</g>
<g>
	<path id="XMLID_152_" fill="#8DCEBD" d="M20.123,121.134h5.641c2.096,0,3.801-1.706,3.801-3.802s-1.705-3.801-3.801-3.801h-1.797
		l-3.844-3.336h5.641c3.942,0,7.137,3.196,7.137,7.138c0,2.99-1.839,5.552-4.448,6.613l4.448,3.86h-5.09L20.123,121.134z"/>
	<path id="XMLID_146_" fill="#8DCEBD" d="M22.877,116.869h-5.64c-2.096,0-3.801,1.705-3.801,3.8s1.706,3.802,3.801,3.802h1.797
		l3.844,3.335h-5.641c-3.942,0-7.138-3.195-7.138-7.137c0-2.99,1.84-5.551,4.449-6.613l-4.448-3.861h5.09L22.877,116.869z"/>
	<path id="XMLID_139_" fill="#8DCEBD" d="M22.877,116.869h-5.64c-2.096,0-3.801,1.705-3.801,3.8s1.706,3.802,3.801,3.802h1.797
		l3.844,3.335h-5.641c-3.942,0-7.138-3.195-7.138-7.137c0-2.99,1.84-5.551,4.449-6.613l-4.448-3.861h5.09L22.877,116.869z"/>
</g>
<path fill="#8DCEBD" d="M216.796,207.978l-10.052,14.23c0,0-0.194,0.297-0.588,0.297c-0.395,0-0.652-0.314-0.652-0.314l-1.734-2.299
	l10.444-14.938c-2.18-1.855-5.006-2.977-8.093-2.977c-6.898,0-12.49,5.592-12.49,12.49s5.592,12.49,12.49,12.49
	s12.49-5.592,12.49-12.49C218.611,212.091,217.947,209.87,216.796,207.978z M196.817,214.15l1.089-1.218l0.919,1.218H196.817z
	 M198.232,212.566l0.025-0.027h4.92l2.693,3.508l-2.405,3.441L198.232,212.566z"/>
<g>
	<path fill="#AAC1BA" d="M234.599,171.801l7.934-3.344l7.689,3.43l-7.701-12.146L234.599,171.801z M234.623,175.512l7.922,4.589
		l8.08-4.589l-8.008,11.144L234.623,175.512z"/>
	<path fill="#AAC1BA" d="M242.568,170.092l-8.262,3.479l8.262,4.59l8.032-4.493L242.568,170.092z"/>
</g>
<g>
	<polygon fill="#C4C6C5" points="75.458,218.05 66.035,218.05 58.719,222.277 82.799,222.277 	"/>
	<polygon fill="#C4C6C5" points="70.781,209.822 75.494,217.98 82.816,222.2 70.769,201.35 	"/>
	<polygon fill="#C4C6C5" points="65.996,217.988 70.702,209.824 70.693,201.374 58.667,222.236 	"/>
</g>
<path fill="#C4C6C5" d="M198.081,13.656l2.22,5.197h-3.329v1.732h4.061l0.73,1.732h-4.791v1.732h5.549l3.871,9.123l3.979-9.123
	h5.657v-1.732h-4.899l0.758-1.732h4.142v-1.732h-3.384l2.274-5.197h-1.896l-3.789,8.662h-5.575l-3.709-8.662H198.081z
	 M204.389,24.051h4.087l-2.057,4.737L204.389,24.051z"/>
<path fill="#8DCEBD" d="M255.362,113.11l5.661,11.904h-11.32L255.362,113.11 M255.362,107.803l-9.264,19.492h18.527L255.362,107.803
	z"/>
<g>
	<g>
		<path id="path30_1_" fill="#03E8B0" d="M133.673,95.194c1.563-0.68,2.677,0.759,3.638,1.722
			c1.722,1.461,3.356,3.019,4.908,4.655c0.889,0.971,0.531,2.746-0.68,3.286c-0.932,0.507-2.066,0.126-2.779-0.58
			c-1.871-1.796-3.661-3.676-5.604-5.389C131.95,97.903,132.195,95.762,133.673,95.194"/>
		<path id="path32_1_" fill="#03E8B0" d="M150.715,100.163c1.058-0.57,2.751-0.108,3.046,1.156
			c0.447,1.12-0.272,2.229-1.062,2.976c-1.731,1.708-3.416,3.467-5.101,5.224c-0.612,0.741-1.692,0.94-2.561,0.539
			c-1.254-0.519-1.591-2.4-0.646-3.35C146.518,104.543,148.391,102.123,150.715,100.163"/>
		<path id="path34_1_" fill="#03E8B0" d="M116.879,100.511c1.102-0.664,2.466-0.224,3.282,0.682
			c1.833,1.852,3.727,3.642,5.583,5.465c1.229,1.136,0.373,3.538-1.341,3.546c-1.435,0.22-2.194-1.199-3.153-1.972
			c-1.684-1.395-3.224-2.946-4.749-4.507C115.636,102.835,115.894,101.203,116.879,100.511"/>
		<path id="path36_1_" fill="#03E8B0" d="M118.301,111.462c1.85-0.714,3.654,1.616,2.5,3.225
			c-1.366,1.777-3.141,3.207-4.628,4.887c-0.878,0.905-1.698,2.294-3.161,2.118c-1.714-0.067-2.573-2.448-1.327-3.604
			C113.934,115.937,115.721,113.213,118.301,111.462"/>
		<path id="path38_1_" fill="#03E8B0" d="M155.789,116.617c1.271-0.831,3.19,0.112,3.23,1.645
			c0.188,1.443-1.24,2.2-2.028,3.169c-1.387,1.67-2.907,3.225-4.479,4.719c-1.146,1.085-3.288,0.325-3.494-1.244
			c-0.268-1.625,1.253-2.631,2.214-3.668C152.82,119.764,154.16,118.025,155.789,116.617"/>
		<path id="path40_1_" fill="#03E8B0" d="M123.125,128.015c1.233-0.737,3.109,0.138,3.137,1.638
			c0.23,1.447-1.2,2.215-1.984,3.184c-1.381,1.673-2.921,3.204-4.478,4.719c-1.01,1.024-3.164,0.529-3.451-0.936
			c-0.489-1.416,0.713-2.558,1.628-3.449C119.753,131.51,121.296,129.61,123.125,128.015"/>
		<path id="path42_1_" fill="#03E8B0" d="M145.073,127.955c0.684-0.231,1.554-0.25,2.13,0.244
			c2.141,2.029,4.414,3.919,6.427,6.089c0.62,0.629,0.673,1.685,0.263,2.438c-0.58,1.364-2.573,1.396-3.54,0.432
			c-1.952-1.84-3.826-3.775-5.79-5.607C143.377,130.626,143.656,128.492,145.073,127.955"/>
		<path id="path44_1_" fill="#03E8B0" d="M128.604,133.155c1.018-0.551,2.214-0.028,2.944,0.748
			c1.845,1.83,3.691,3.662,5.605,5.416c1.26,1.197,0.408,3.63-1.368,3.646c-1.433,0.169-2.18-1.253-3.141-2.031
			c-1.674-1.384-3.225-2.913-4.725-4.48C127.016,135.486,127.383,133.689,128.604,133.155"/>
		<path id="path46_1_" fill="#03E8B0" d="M125.331,97.042c0,1.16-0.94,2.101-2.101,2.101
			c-1.161,0-2.102-0.941-2.102-2.101s0.941-2.101,2.102-2.101C124.39,94.941,125.331,95.882,125.331,97.042"/>
		<path id="path48_1_" fill="#03E8B0" d="M131.457,102.632c0,1.16-0.942,2.101-2.101,2.101
			c-1.161,0-2.103-0.94-2.103-2.101s0.941-2.101,2.103-2.101C130.515,100.531,131.457,101.472,131.457,102.632"/>
		<path id="path50_1_" fill="#03E8B0" d="M115.048,107.766c0,1.16-0.94,2.103-2.101,2.103
			c-1.159,0-2.102-0.943-2.102-2.103c0-1.158,0.942-2.101,2.102-2.101C114.107,105.665,115.048,106.607,115.048,107.766"/>
		<path id="path52_1_" fill="#03E8B0" d="M148.411,96.875c0,1.16-0.944,2.103-2.103,2.103
			c-1.161,0-2.103-0.942-2.103-2.103c0-1.161,0.941-2.101,2.103-2.101C147.467,94.774,148.411,95.715,148.411,96.875"/>
		<path id="path54_1_" fill="#03E8B0" d="M159.294,107.239c0,1.162-0.942,2.103-2.103,2.103
			s-2.102-0.94-2.102-2.103c0-1.16,0.941-2.101,2.102-2.101S159.294,106.079,159.294,107.239"/>
		<path id="path56_1_" fill="#03E8B0" d="M153.547,113.278c0,1.16-0.938,2.101-2.1,2.101
			s-2.102-0.941-2.102-2.101s0.94-2.101,2.102-2.101S153.547,112.118,153.547,113.278"/>
		<path id="path58_1_" fill="#03E8B0" d="M159.284,130.249c0,1.162-0.942,2.101-2.104,2.101
			s-2.102-0.938-2.102-2.101c0-1.16,0.94-2.102,2.102-2.102S159.284,129.089,159.284,130.249"/>
		<path id="path60_1_" fill="#03E8B0" d="M142.893,135.372c0,1.163-0.939,2.105-2.101,2.105
			c-1.159,0-2.103-0.942-2.103-2.105c0-1.157,0.943-2.101,2.103-2.101C141.953,133.271,142.893,134.215,142.893,135.372"/>
		<path id="path62_1_" fill="#03E8B0" d="M148.939,141.123c0,1.161-0.939,2.103-2.102,2.103
			c-1.161,0-2.102-0.941-2.102-2.103c0-1.16,0.94-2.101,2.102-2.101C148,139.022,148.939,139.963,148.939,141.123"/>
		<path id="path64_1_" fill="#03E8B0" d="M125.925,141.123c0,1.161-0.943,2.103-2.101,2.103
			c-1.163,0-2.101-0.941-2.101-2.103c0-1.16,0.938-2.103,2.101-2.103C124.982,139.021,125.925,139.963,125.925,141.123"/>
		<path id="path66_1_" fill="#03E8B0" d="M120.8,124.663c0,1.162-0.94,2.102-2.102,2.102
			s-2.102-0.939-2.102-2.102c0-1.16,0.94-2.101,2.102-2.101S120.8,123.503,120.8,124.663"/>
		<path id="path68_1_" fill="#03E8B0" d="M115.048,130.77c0,1.161-0.94,2.103-2.101,2.103
			c-1.159,0-2.102-0.941-2.102-2.103c0-1.159,0.942-2.1,2.102-2.1C114.107,128.67,115.048,129.61,115.048,130.77"/>
	</g>
</g>
<g>
	<path fill="#03E8B0" d="M242.453,77.159c-7.326,0-13.286-5.959-13.286-13.285c0-7.326,5.96-13.286,13.286-13.286
		s13.286,5.96,13.286,13.286C255.739,71.2,249.777,77.159,242.453,77.159L242.453,77.159z M242.453,52.378
		c-6.339,0-11.495,5.158-11.495,11.496c0,6.339,5.156,11.495,11.495,11.495s11.495-5.156,11.495-11.495
		C253.948,57.536,248.792,52.378,242.453,52.378L242.453,52.378z"/>
	<path fill="#03E8B0" d="M241.636,67.267h5.906v2.968h-3.635c0.061,0.849,0.09,1.637,0.152,2.484h-3.061v-2.453h-3.636
		c0-0.97-0.121-1.938,0.061-2.848c0.093-0.484,0.637-0.909,0.97-1.333c1.151-1.363,2.303-2.696,3.483-4.059
		c0.454-0.514,0.909-0.999,1.424-1.575h-5.665v-2.969h3.363v-2.484h2.938v2.423h3.665c0,1,0.122,1.97-0.061,2.878
		c-0.09,0.485-0.637,0.909-0.999,1.333c-1.151,1.362-2.303,2.696-3.484,4.059C242.605,66.237,242.151,66.722,241.636,67.267
		L241.636,67.267z"/>
</g>
</svg>
